symbols/web/looks_two/materialsymbolssharp/looks_two_wght200_24px.svg

<svg xmlns="http://www.w3.org/2000/svg" height="24" width="24"><path d="M9.5 16.5H14.5V15.5H10.5V12.5H14.5V7.5H9.5V8.5H13.5V11.5H9.5ZM4 20V4H20V20ZM5 19H19V5H5ZM5 19V5V19Z"/></svg>

<svg xmlns="http://www.w3.org/2000/svg" height="24" width="24"><path d="M9.5 16.5h5v-1h-4v-3h4v-5h-5v1h4v3h-4ZM4 20V4h16v16Zm1-1h14V5H5Zm0 0V5v14Z"/></svg>
